svg/clockface/clockfacefatsquaresolid/clock_07_25.svg

<?xml version="1.0" encoding="UTF-8" standalone="no"?>
<svg
   height="1000"
   width="1000"
   version="1.1"
   viewBox="0 0 1000 1000"
   id="svg7"
   sodipodi:docname="clock_07_25.svg"
   xmlns:inkscape="http://www.inkscape.org/namespaces/inkscape"
   xmlns:sodipodi="http://sodipodi.sourceforge.net/DTD/sodipodi-0.dtd"
   xmlns="http://www.w3.org/2000/svg"
   xmlns:svg="http://www.w3.org/2000/svg">
  <defs
     id="defs11" />
  <sodipodi:namedview
     id="namedview9"
     pagecolor="#ffffff"
     bordercolor="#000000"
     borderopacity="0.25"
     inkscape:showpageshadow="2"
     inkscape:pageopacity="0.0"
     inkscape:pagecheckerboard="0"
     inkscape:deskcolor="#d1d1d1" />
  <path
     id="path15"
     style="color:#000000;fill:#000000;stroke-width:60;-inkscape-stroke:none"
     d="M 129 129 L 129 159 L 129 869 L 869 869 L 869 129 L 129 129 z M 491.68359 460.87891 A 40.004 40.004 0 0 1 534.64062 480 L 639.64062 661.86523 L 659.64062 696.50586 L 590.35938 736.50586 L 570.35938 701.86523 L 500 580 L 464.64062 641.24414 L 444.64062 675.88477 L 375.35938 635.88477 L 395.35938 601.24414 L 465.35938 480 A 40.004 40.004 0 0 1 491.68359 460.87891 z " />
</svg>

<svg xmlns="http://www.w3.org/2000/svg" width="1000" height="1000"><path d="M129 129v740h740V129H129zm362.684 331.879A40.004 40.004 0 0 1 534.64 480l105 181.865 20 34.64-69.282 40-20-34.64L500 580l-35.36 61.244-20 34.64-69.28-40 20-34.64 70-121.244a40.004 40.004 0 0 1 26.324-19.121z" style="-inkscape-stroke:none" stroke-width="60"/></svg>
